T: Above And Beyond
M: 4/4
L: 1/8
K: Dmaj
||: FDCD F2 AG | FDCD F3 A | cA d2 cAFA | G^FG A2 B AG |!FDCD F2 AG | FDCD F3 A | cA d2 cAFA |1 G2 FE F4 :|2 G2 FE FGAc |!|:d2d3 c Ad | Accd cAF2 | ABdB A2 GF | DGG^F G2 AG |!  FDCD F2 AG | FDCD F3 A | cA d2 cAFA |1 G2 FE FGAc :|2 G2 FE F4 :||||: FDCD F2 AG | FDCD F3 A | cA d2 cAFA | G^FG A2 B AG |!   FDCD F2 AG | FDCD F3 A | cA d2 cAFA |1 G2 FE F4 :|2 G2 FE FGAc |!|:d2d3 c Ad | Accd cAF2 | ABdB A2 GF | DGG^F G2 AG |!  FDCD F2 AG | FDCD F3 A | cA d2 cAFA |1 G2 FE FGAc :|2 G2 FE F4 :||
